X: 4081
T: The GIRLS OF OUR TOWN
R: Reel.
%R: reel
B: James Kerr "Merry Melodies" v.4 p.11 #81
Z: 2016 John Chambers <jc:trillian.mit.edu>
M: C|
L: 1/8
K: D
(gf) |\
eBBA (3(Bcd) (ef) | eBBA d3f |\
eBBA ceef | defe d2 ::\
ef |\
g2fg (e3g) | fgaf d2ef |\
[1 g2fg e2fe | (dB)AB d2 :|\
[2 gabg egfe | dBAB d2 |]

%%sep 1 1 500
%%sep 1 1 500

